packages/core/src/svgs/tokens/mono/OOKS.svg

<svg width="24" height="24" viewBox="0 0 24 24" fill="none" xmlns="http://www.w3.org/2000/svg">
<path fill-rule="evenodd" clip-rule="evenodd" d="M15.4351 2.00143H3.24854V18.0628L7.18574 22H17.3101C17.8788 22 18.7286 21.8311 19.4474 21.3124C19.8748 20.9976 20.2173 20.5814 20.4441 20.1015C20.671 19.6216 20.7752 19.0929 20.7472 18.5627V7.31352C20.7472 7.06979 20.6972 6.70107 20.5222 6.38234C20.4288 6.19086 20.2828 6.02987 20.1014 5.91813C19.9198 5.80639 19.7104 5.74847 19.4974 5.75115H18.8724V5.43867C18.8724 4.83871 18.6162 4.43249 18.2725 4.18876C17.9906 3.98967 17.6551 3.88073 17.3101 3.87628H16.9976V3.56381C16.9976 3.30757 16.9225 2.92635 16.6851 2.60138C16.5421 2.40619 16.3533 2.24928 16.1353 2.14462C15.9173 2.03997 15.6767 1.99077 15.4351 2.00143ZM18.8724 17.0003V6.3761H19.4974C19.7285 6.3761 19.8723 6.49484 19.9723 6.68233C20.0785 6.88231 20.1222 7.13853 20.1222 7.31352V18.5627C20.1222 19.7126 19.6536 20.4 19.0786 20.8126C18.4912 21.2312 17.7787 21.375 17.3101 21.375H7.43573L6.18582 20.125H15.1227C16.5725 20.125 17.5225 19.6251 18.1099 18.9627C18.587 18.4186 18.8571 17.7238 18.8724 17.0003ZM15.1227 19.5002H5.56086L4.31095 18.2502H14.8102C15.1726 18.2502 15.7101 18.144 16.1664 17.8127C16.4383 17.6122 16.6566 17.3475 16.8017 17.0422C16.9467 16.7368 17.014 16.4004 16.9976 16.0628V4.50123H17.3101C17.4662 4.50123 17.7099 4.55123 17.91 4.68872C18.0912 4.81996 18.2474 5.03869 18.2474 5.43867V17.0003C18.2474 17.4066 18.0975 18.0314 17.6349 18.5501C17.1912 19.0627 16.4226 19.5002 15.1227 19.5002ZM3.87349 2.62638V17.6253H14.8102C15.0727 17.6253 15.4727 17.544 15.7976 17.3128C16.1101 17.0878 16.3726 16.7128 16.3726 16.0628V3.56381C16.3726 3.40756 16.3225 3.16384 16.185 2.96385C16.0538 2.78261 15.8351 2.62638 15.4351 2.62638H3.87349ZM5.12339 9.50083C4.62344 12.5007 6.79202 14.5005 7.93569 15.1255L7.31073 16.0628C7.41697 16.1691 7.99818 16.3753 9.49805 16.3753C11.3729 16.3753 14.8102 15.1255 15.1227 10.7508C15.3727 7.25103 13.354 5.75115 12.3104 5.43867L13.2477 3.87628H11.3729C9.18555 3.87628 5.74835 5.75115 5.12339 9.50083ZM8.24816 8.87591C8.99811 7.626 10.4355 7.93849 11.0604 8.25095L11.3729 7.00105C12.3104 7.626 12.6229 8.56344 12.6229 10.1258C12.6229 11.6882 11.2354 12.6257 10.123 12.6257C9.49805 12.6257 9.07935 12.2069 8.87311 12.0007V13.563C7.93569 12.9382 7.31073 10.4383 8.24816 8.87591Z" fill="white"/>
</svg>

<svg xmlns="http://www.w3.org/2000/svg" width="24" height="24" fill="none" viewBox="0 0 24 24">
    <path fill="#fff" fill-rule="evenodd" d="M15.435 2.001H3.25v16.062L7.186 22H17.31a3.8 3.8 0 0 0 2.137-.688 3.2 3.2 0 0 0 1.3-2.75V7.315c0-.244-.05-.613-.225-.932a1.12 1.12 0 0 0-1.025-.63h-.625V5.44c0-.6-.256-1.007-.6-1.25a1.7 1.7 0 0 0-.962-.313h-.312v-.312a1.7 1.7 0 0 0-.313-.963 1.47 1.47 0 0 0-1.25-.6m3.437 15V6.375h.625c.232 0 .375.119.475.306.106.2.15.457.15.632v11.249c0 1.15-.468 1.837-1.043 2.25-.588.418-1.3.562-1.769.562H7.436l-1.25-1.25h8.937c1.45 0 2.4-.5 2.987-1.162A3.08 3.08 0 0 0 18.872 17m-3.75 2.5h-9.56l-1.25-1.25h10.5c.362 0 .9-.107 1.355-.438a2.05 2.05 0 0 0 .832-1.75V4.5h.312c.156 0 .4.05.6.188.181.131.337.35.337.75V17c0 .407-.15 1.031-.612 1.55-.444.513-1.212.95-2.512.95M3.874 2.625v15H14.81a1.8 1.8 0 0 0 .988-.313c.312-.225.575-.6.575-1.25v-12.5c0-.155-.05-.4-.188-.6-.131-.18-.35-.337-.75-.337zM5.124 9.5c-.5 3 1.669 5 2.813 5.625l-.625.937c.106.106.687.312 2.187.312 1.875 0 5.312-1.25 5.625-5.624.25-3.5-1.769-5-2.813-5.312l.938-1.563h-1.875c-2.187 0-5.625 1.875-6.25 5.625m3.125-.625c.75-1.25 2.188-.938 2.812-.625L11.373 7c.937.625 1.25 1.562 1.25 3.125s-1.388 2.5-2.5 2.5c-.625 0-1.044-.42-1.25-.625v1.562c-.937-.625-1.562-3.125-.625-4.687" clip-rule="evenodd"/>
</svg>
